X:1
T:6 Lieder, Op.26
T:Wiegenlied
T:Frau Clara Schumann freundlichst gewidmet
T:6 Lieder, Op.26
T:Josephine Lang
T:1. Wiegenlied
T:Josephine Lang (after August Heinrich Hoffmann von Fallersleben) 
T:Creative Commons copyright waiver (CC0 1.0 Universal)
T:Creative Commons copyright waiver (CC0 1.0 Universal)
T:Creative Commons copyright waiver (CC0 1.0 Universal)
T:Creative Commons copyright waiver (CC0 1.0 Universal)
T:Creative Commons copyright waiver (CC0 1.0 Universal)
C:Josephine Lang
Z:Josephine Lang (after August Heinrich Hoffmann von Fallersleben)
Z:Creative Commons copyright waiver (CC0 1.0 Universal)
L:1/8
Q:1/4=71
M:3/4
K:Eb
V:1 treble nm="Singstimme\nVoice"
V:1
"^Ruhig und wiegend" z6 | z6 | z6 | z6 | z6 | z6 | z6 | z6 | z6 | z6 | z2 z2 B2 | F3 G F2 | %12
w: ||||||||||So|be- te, mein|
 E2 z2 B2 | F2 D2 E2 | F4 B2 | F3 G F2 | E2 E3 D | C3 G F2 | (F2 B,2) B2 | (F3 G) F2 | E4 B2 | %21
w: Kind, und|schlaf' dann in|Ruh'; und|schlie- sse die|blau- en Guck-|äu- ge- lein|zu! _ Die|Lämm- * chen|sind jetzt|
 (F2 D2) E2 | F4 z2 | G2 G2 =A2 | B4 D2 | (E2 C2) F2 | B,4 z2 | z6 | z6 | z6 | z6 | z6 | z6 | z6 | %34
w: müd' _ und|matt,|und su- chen|ih- re|La- * ger-|statt,||||||||
 z6 | z6 | z6 | z6 | z6 | z6 | z6 | z6 | z6 | z4 z F | F4 F2 | B4 F2 | %46
w: |||||||||Die|Ster- ne|glän- zen|
"^TRANSCRIBER:\nthe IMSLP edition\nis incorrect here !\n" F4- F =E | G4 G2 | A4 A2 | A2 z2 A2 | %50
w: hell _ und|klar, es|kommt von|dort der|
 (A2 B2) c2 | B6- | B6 | z6 | z6 | z6 | z6 | z6 | z6 | z6 | z6 | z6 | z6 | z6 | z6 | z6 | z6 | z6 | %68
w: En- * gel-|schaar,|_||||||||||||||||
 z6 | z2 z2 z D | (C2 G3) F | (F2 B,) z B2 | (F3 G) F2 | E4 B2 | (F2 D2) E2 | F4 z2 | z6 | z6 | %78
w: |die|gan- * ze|Nacht! * Er|brei- * tet|sei- ne|Flü- * gel|aus,|||
 z6 | z6 | z6 | z6 | z6 | z6 | z6 | z6 | z6 | z6 | z6 | z6 | z6 | z6 | z6 | C3 C D2 | E2 E2 F2 | %95
w: |||||||||||||||schlie- sse die|mü- den Guck-|
 D2 c2 B2 | (A2{BA} G2) (F2 | G3) F E2 | B,2 z4 | z6 | z6 | z6 | z6 | z6 | z6 | z6 | z6 | z6 | z6 | %109
w: äu- ge- lein|zu, _ so|be- te mein|Kind|||||||||||
 z6 | z6 | z6 | z6 | z6 | z6 | z6 | z6 | z6 | z6 | z6 | z6 | z6 | z6 | z6 |] %124
w: |||||||||||||||

